X: 26501
T: Michael Murphy's
R: slide
M: 12/8
K: Gmajor
Bc|d2g B2A G2G GFG|A2A ABA e2d B2c|d2g B2A G2G GFG|A2A ABA G3 G:|
Bd|e2d g2d e2d B2G|A2A ABA e2d B2d|e2d g2d e2d B2G|A2A ABA G3 GBd|
e2d g2d e2d B2G|A2A ABA e2d B2c|d2g B2A G2G GFG|A2A ABA G3 G||

